X: 1
T: McKechnie's Farewell
C: John Sommerville
R: march
Z: 2014 John Chambers <jc:trillian.mit.edu>
S: page from Concord Slow Scottish Session collection
S: handwritten and printed copies of unknown origin
N: chords from https://glasgowfiddle.org.uk/session-tunes
M: 4/4
L: 1/8
K: D
DE |\
"D"F2FA "Em7"E2DE | "F#m"FEFA "Em7"E2DE | "D"F2FA "(D7)"dcBA | "G"ABBA B2-"A7"Bc |
"Bm"dcBA "Em7"BAFE | "D"FEFA "A7"E2DE | "D"FEFA "G"EDB,A, | "D"A,D"G"DE "D"D2 :|
|: FA |\
"G"B2BA Bd"A"cA | "D"zAAF "Bm"AB F{E}D | "Em"E2ED "A7"EFDE | "D"FAAF "(D7)"ABFA |
"G"B2BA Bd"A"cA | "D"zAAF "Bm"AB F{E}D | "Em"E2ED "A7"EFDB, | "D"A,D"G"DE "D"D2 :|
